X:2098
T:Dy beagh y vummig aym 
C:Tom Kermode, Bradda
O:Isle of Man
S:Traditional 
N:(needs a B part) 
Z:Kiaull Vannin #98 
L:1/4
M:4/4 
Q:100 
K:D 
d/e/|f g f d|B2 c d|e>f e d|B>A F ^A|B>d cB|A>B c c|B3|| 

